server/adaptors/integrations/__data__/repository/aws_elb/static/logo.svg

<svg xmlns="http://www.w3.org/2000/svg" width="80" height="80" viewBox="0 0 80 80">
  <g fill="none" fill-rule="evenodd" stroke="none">
    <path fill="#8C4FFF" d="M0 0h80v80H0z"/>
    <path fill="#FFF" d="M30 53c-7.168 0-13-5.832-13-13s5.832-13 13-13 13 5.832 13 13-5.832 13-13 13m30 6c0 2.206-1.794 4-4 4s-4-1.794-4-4 1.794-4 4-4 4 1.794 4 4m-4-42c2.206 0 4 1.794 4 4s-1.794 4-4 4-4-1.794-4-4 1.794-4 4-4m3 19c2.206 0 4 1.794 4 4s-1.794 4-4 4-4-1.794-4-4 1.794-4 4-4m-14.051 5h8.141c.478 2.833 2.943 5 5.91 5 3.309 0 6-2.691 6-6s-2.691-6-6-6c-2.967 0-5.432 2.167-5.91 5h-8.141a14.851 14.851 0 0 0-1.377-5.346l8.874-7.831A5.96 5.96 0 0 0 56 27c3.309 0 6-2.691 6-6s-2.691-6-6-6-6 2.691-6 6c0 1.256.389 2.421 1.051 3.386l-8.47 7.473C39.904 27.738 35.271 25 30 25c-8.271 0-15 6.729-15 15s6.729 15 15 15c5.271 0 9.904-2.738 12.581-6.859l8.47 7.473A5.964 5.964 0 0 0 50 59c0 3.309 2.691 6 6 6s6-2.691 6-6-2.691-6-6-6a5.96 5.96 0 0 0-3.554 1.177l-8.874-7.831A14.851 14.851 0 0 0 44.949 41"/>
  </g>
</svg>

<?xml version="1.0" encoding="UTF-8"?>
<svg width="80px" height="80px" viewBox="0 0 80 80" version="1.1" xmlns="http://www.w3.org/2000/svg" xmlns:xlink="http://www.w3.org/1999/xlink">
    <title>Icon-Architecture/64/Arch_Elastic-Load-Balancing_64</title>
    <g id="Icon-Architecture/64/Arch_Elastic-Load-Balancing_64" stroke="none" stroke-width="1" fill="none" fill-rule="evenodd">
        <g id="Icon-Architecture-BG/64/Networking-Content-Delivery" fill="#8C4FFF">
            <rect id="Rectangle" x="0" y="0" width="80" height="80"></rect>
        </g>
        <path d="M30,53 C22.832,53 17,47.168 17,40 C17,32.832 22.832,27 30,27 C37.168,27 43,32.832 43,40 C43,47.168 37.168,53 30,53 M60,59 C60,61.206 58.206,63 56,63 C53.794,63 52,61.206 52,59 C52,56.794 53.794,55 56,55 C58.206,55 60,56.794 60,59 M56,17 C58.206,17 60,18.794 60,21 C60,23.206 58.206,25 56,25 C53.794,25 52,23.206 52,21 C52,18.794 53.794,17 56,17 M59,36 C61.206,36 63,37.794 63,40 C63,42.206 61.206,44 59,44 C56.794,44 55,42.206 55,40 C55,37.794 56.794,36 59,36 M44.949,41 L53.09,41 C53.568,43.833 56.033,46 59,46 C62.309,46 65,43.309 65,40 C65,36.691 62.309,34 59,34 C56.033,34 53.568,36.167 53.09,39 L44.949,39 C44.823,37.099 44.344,35.297 43.572,33.654 L52.446,25.823 C53.442,26.559 54.669,27 56,27 C59.309,27 62,24.309 62,21 C62,17.691 59.309,15 56,15 C52.691,15 50,17.691 50,21 C50,22.256 50.389,23.421 51.051,24.386 L42.581,31.859 C39.904,27.738 35.271,25 30,25 C21.729,25 15,31.729 15,40 C15,48.271 21.729,55 30,55 C35.271,55 39.904,52.262 42.581,48.141 L51.051,55.614 C50.389,56.579 50,57.744 50,59 C50,62.309 52.691,65 56,65 C59.309,65 62,62.309 62,59 C62,55.691 59.309,53 56,53 C54.669,53 53.442,53.441 52.446,54.177 L43.572,46.346 C44.344,44.703 44.823,42.901 44.949,41" id="Elastic-Load-Balancing_Icon_64_Squid" fill="#FFFFFF"></path>
    </g>
</svg>
